Flat-Remix-Dark/apps/scalable/armagetronad.svg

<svg xmlns="http://www.w3.org/2000/svg" xmlns:xlink="http://www.w3.org/1999/xlink" width="384pt" height="384pt" version="1.1" viewBox="0 0 384 384"> <defs> <filter id="alpha" width="100%" height="100%" x="0%" y="0%" filterUnits="objectBoundingBox"> <feColorMatrix in="SourceGraphic" type="matrix" values="0 0 0 0 1 0 0 0 0 1 0 0 0 0 1 0 0 0 1 0"/> </filter> <mask id="mask1"> <g filter="url(#alpha)"> <rect style="fill:rgb(0%,0%,0%);fill-opacity:0.2" width="384" height="384" x="0" y="0"/> </g> </mask> <clipPath id="clip2"> <rect width="384" height="384" x="0" y="0"/> </clipPath> <g id="surface8" clip-path="url(#clip2)"> <path d="M 240 198 C 240 224.507812 218.507812 246 192 246 C 165.492188 246 144 224.507812 144 198 C 144 171.492188 165.492188 150 192 150 C 218.507812 150 240 171.492188 240 198 Z M 240 198" style="fill:rgb(0%,0%,0%)"/> </g> <mask id="mask2"> <g filter="url(#alpha)"> <rect style="fill:rgb(0%,0%,0%);fill-opacity:0.2" width="384" height="384" x="0" y="0"/> </g> </mask> <clipPath id="clip3"> <rect width="384" height="384" x="0" y="0"/> </clipPath> <g id="surface11" clip-path="url(#clip3)"> <path d="M 192 24 C 99.214844 24 24 99.214844 24 192 C 24.035156 192.8125 24.078125 193.625 24.128906 194.4375 C 26.066406 103.097656 100.640625 30.050781 192 30 C 283.753906 30.058594 358.488281 103.726562 359.871094 195.46875 C 359.925781 194.3125 359.96875 193.15625 360 192 C 360 99.214844 284.785156 24 192 24 Z M 192 24" style="fill:rgb(100.000%,100.000%,100.000%)"/> </g> </defs> <g> <path d="M 192 24 C 99.214844 24 24 99.214844 24 192 C 24 284.785156 99.214844 360 192 360 C 284.785156 360 360 284.785156 360 192 C 360 99.214844 284.785156 24 192 24 Z M 192 24" style="fill:rgb(100.000%,78.039%,18.823%)"/> <path d="M 195.082031 72.148438 C 193.925781 75.589844 192.851562 78.609375 191.582031 82.796875 C 187.378906 96.675781 183.382812 113.734375 183.429688 123.394531 C 183.472656 132.621094 187.476562 149.003906 191.648438 162.316406 C 192.71875 165.730469 193.269531 167.054688 194.175781 169.71875 C 195.40625 167.226562 195.964844 165.871094 197.558594 162.820312 C 204.332031 149.863281 212.808594 134.917969 222.285156 125.351562 C 232.066406 115.476562 247.464844 106.527344 260.839844 99.371094 C 262.542969 98.460938 263.644531 97.980469 265.257812 97.144531 C 245.109375 81.578125 220.53125 72.824219 195.082031 72.148438 Z M 176.714844 73.121094 C 151.46875 76.34375 127.898438 87.515625 109.414062 105.011719 C 111.019531 108.222656 112.390625 111.070312 114.4375 114.890625 C 121.261719 127.621094 130.4375 142.496094 137.472656 149.59375 C 144.457031 156.640625 159.859375 166.367188 173.097656 173.652344 C 175.125 174.765625 176.519531 175.425781 178.355469 176.398438 C 177.300781 173.332031 176.5625 171.488281 175.292969 167.441406 C 170.921875 153.488281 166.351562 136.925781 166.285156 123.460938 C 166.21875 109.5625 170.777344 92.34375 175.175781 77.824219 C 175.734375 75.976562 176.164062 74.855469 176.714844 73.121094 Z M 278.96875 109.398438 C 275.710938 111.019531 272.804688 112.414062 268.925781 114.488281 C 256.140625 121.328125 241.253906 130.558594 234.457031 137.421875 C 227.960938 143.980469 219.207031 158.390625 212.742188 170.753906 C 211.089844 173.914062 210.550781 175.238281 209.308594 177.753906 C 211.859375 176.894531 213.578125 176.226562 216.558594 175.292969 C 230.511719 170.921875 247.074219 166.351562 260.539062 166.285156 C 274.4375 166.21875 291.65625 170.777344 306.175781 175.175781 C 308.023438 175.734375 309.144531 176.164062 310.878906 176.714844 C 307.652344 151.460938 296.480469 127.882812 278.96875 109.398438 Z M 97.144531 118.742188 C 81.582031 138.886719 72.828125 163.457031 72.148438 188.902344 C 75.542969 190.035156 78.5 191.070312 82.628906 192.316406 C 96.457031 196.496094 113.46875 200.527344 123.460938 200.570312 C 133.382812 200.613281 151.152344 196.597656 165.667969 192.386719 C 167.21875 191.933594 168.179688 191.582031 169.617188 191.144531 C 167.925781 190.25 166.695312 189.675781 164.863281 188.667969 C 151.070312 181.082031 135.210938 171.664062 125.304688 161.664062 C 115.445312 151.71875 106.441406 136.304688 99.304688 122.992188 C 98.421875 121.347656 97.953125 120.300781 97.144531 118.742188 Z M 260.605469 183.429688 C 251.378906 183.472656 234.996094 187.476562 221.683594 191.648438 C 218.5625 192.625 216.875 193.289062 214.300781 194.160156 C 216.714844 195.355469 218.40625 196.105469 221.179688 197.558594 C 234.136719 204.332031 249.082031 212.808594 258.648438 222.285156 C 268.523438 232.066406 277.472656 247.464844 284.628906 260.839844 C 285.539062 262.542969 286.019531 263.644531 286.855469 265.257812 C 302.421875 245.109375 311.175781 220.53125 311.851562 195.082031 C 308.410156 193.925781 305.390625 192.851562 301.203125 191.582031 C 287.324219 187.378906 270.265625 183.382812 260.605469 183.429688 Z M 175.578125 207.234375 C 173.746094 207.796875 172.464844 208.257812 170.453125 208.839844 C 155.335938 213.226562 137.472656 217.777344 123.394531 217.714844 C 109.390625 217.652344 92.117188 213.109375 77.65625 208.742188 C 75.871094 208.199219 74.800781 207.78125 73.121094 207.25 C 76.339844 232.511719 87.507812 256.09375 105.011719 274.585938 C 108.222656 272.980469 111.070312 271.609375 114.890625 269.5625 C 127.621094 262.738281 142.496094 253.5625 149.59375 246.527344 C 156.640625 239.542969 166.367188 224.140625 173.652344 210.902344 C 174.429688 209.488281 174.886719 208.53125 175.578125 207.234375 Z M 207.738281 210.03125 C 208.125 211.304688 208.441406 212.164062 208.839844 213.546875 C 213.226562 228.664062 217.777344 246.527344 217.714844 260.605469 C 217.652344 274.609375 213.109375 291.882812 208.742188 306.34375 C 208.199219 308.128906 207.78125 309.199219 207.25 310.878906 C 232.519531 307.660156 256.105469 296.484375 274.601562 278.96875 C 272.980469 275.710938 271.585938 272.804688 269.511719 268.925781 C 262.671875 256.140625 253.441406 241.253906 246.574219 234.457031 C 240.019531 227.960938 225.609375 219.207031 213.246094 212.742188 C 210.964844 211.550781 209.734375 211.027344 207.738281 210.03125 Z M 191.144531 214.382812 C 190.273438 216.039062 189.675781 217.304688 188.667969 219.136719 C 181.082031 232.929688 171.664062 248.785156 161.664062 258.695312 C 151.71875 268.554688 136.304688 277.558594 122.992188 284.695312 C 121.347656 285.578125 120.300781 286.046875 118.742188 286.855469 C 138.886719 302.417969 163.457031 311.171875 188.902344 311.851562 C 190.035156 308.457031 191.070312 305.5 192.316406 301.371094 C 196.496094 287.542969 200.527344 270.53125 200.570312 260.539062 C 200.613281 250.617188 196.597656 232.847656 192.386719 218.332031 C 191.933594 216.78125 191.574219 215.789062 191.144531 214.382812 Z M 191.144531 214.382812" style="fill:rgb(29.803%,29.803%,29.803%)"/> <use mask="url(#mask1)" xlink:href="#surface8"/> <path d="M 240 192 C 240 218.507812 218.507812 240 192 240 C 165.492188 240 144 218.507812 144 192 C 144 165.492188 165.492188 144 192 144 C 218.507812 144 240 165.492188 240 192 Z M 240 192" style="fill:rgb(90.196%,90.196%,90.196%)"/> <use mask="url(#mask2)" xlink:href="#surface11"/> </g> <path d="M 32.0625 251 C 32.026062 252.66306 32 254.3282 32 256 C 32 379.71355 132.28647 480 256 480 C 379.71355 480 480 379.71355 480 256 C 480 254.3282 479.97394 252.66306 479.9375 251 C 477.27753 372.40329 378.04174 470 256 470 C 133.95829 470 34.722471 372.40329 32.0625 251 z" transform="scale(0.75)" style="opacity:0.3"/> </svg>

<svg width="512" height="512" version="1.1" viewBox="0 0 384 384" xmlns="http://www.w3.org/2000/svg"><defs><clipPath><rect width="384" height="384"/></clipPath><clipPath><rect width="384" height="384"/></clipPath></defs><path d="m192 24c-92.785 0-168 75.215-168 168 0 92.785 75.215 168 168 168 92.785 0 168-75.215 168-168 0-92.785-75.215-168-168-168z" fill="#ffc72e"/><path d="m195.08 72.148c-1.1562 3.4414-2.2305 6.4609-3.5 10.648-4.2031 13.879-8.1992 30.938-8.1523 40.598 0.043 9.2266 4.0469 25.609 8.2188 38.922 1.0703 3.4141 1.6211 4.7383 2.5273 7.4023 1.2305-2.4922 1.7891-3.8477 3.3828-6.8984 6.7734-12.957 15.25-27.902 24.727-37.469 9.7812-9.875 25.18-18.824 38.555-25.98 1.7031-0.91016 2.8047-1.3906 4.418-2.2266-20.148-15.566-44.727-24.32-70.176-24.996zm-18.367 0.97266c-25.246 3.2227-48.816 14.395-67.301 31.891 1.6055 3.2109 2.9766 6.0586 5.0234 9.8789 6.8242 12.73 16 27.605 23.035 34.703 6.9844 7.0469 22.387 16.773 35.625 24.059 2.0273 1.1133 3.4219 1.7734 5.2578 2.7461-1.0547-3.0664-1.793-4.9102-3.0625-8.957-4.3711-13.953-8.9414-30.516-9.0078-43.98-0.0664-13.898 4.4922-31.117 8.8906-45.637 0.55859-1.8477 0.98828-2.9688 1.5391-4.7031zm102.25 36.277c-3.2578 1.6211-6.1641 3.0156-10.043 5.0898-12.785 6.8398-27.672 16.07-34.469 22.934-6.4961 6.5586-15.25 20.969-21.715 33.332-1.6524 3.1602-2.1914 4.4844-3.4336 7 2.5508-0.85938 4.2695-1.5274 7.25-2.4609 13.953-4.3711 30.516-8.9414 43.98-9.0078 13.898-0.0664 31.117 4.4922 45.637 8.8906 1.8477 0.55859 2.9688 0.98828 4.7031 1.5391-3.2266-25.254-14.398-48.832-31.91-67.316zm-181.82 9.3438c-15.562 20.145-24.316 44.715-24.996 70.16 3.3945 1.1328 6.3516 2.168 10.48 3.4141 13.828 4.1797 30.84 8.2109 40.832 8.2539 9.9219 0.043 27.691-3.9726 42.207-8.1836 1.5508-0.45313 2.5117-0.80469 3.9492-1.2422-1.6914-0.89453-2.9219-1.4688-4.7539-2.4766-13.793-7.5859-29.652-17.004-39.559-27.004-9.8594-9.9453-18.863-25.359-26-38.672-0.88281-1.6445-1.3516-2.6914-2.1602-4.25zm163.46 64.688c-9.2266 0.043-25.609 4.0469-38.922 8.2188-3.1211 0.97656-4.8086 1.6406-7.3828 2.5117 2.4141 1.1953 4.1055 1.9453 6.8789 3.3984 12.957 6.7734 27.902 15.25 37.469 24.727 9.875 9.7812 18.824 25.18 25.98 38.555 0.91015 1.7031 1.3906 2.8047 2.2266 4.418 15.566-20.148 24.32-44.727 24.996-70.176-3.4414-1.1562-6.4609-2.2305-10.648-3.5-13.879-4.2031-30.938-8.1992-40.598-8.1523zm-85.027 23.805c-1.832 0.5625-3.1133 1.0234-5.125 1.6055-15.117 4.3867-32.98 8.9375-47.059 8.875-14.004-0.0625-31.277-4.6055-45.738-8.9726-1.7852-0.54297-2.8555-0.96094-4.5352-1.4922 3.2188 25.262 14.387 48.844 31.891 67.336 3.2109-1.6055 6.0586-2.9766 9.8789-5.0234 12.73-6.8242 27.605-16 34.703-23.035 7.0469-6.9844 16.773-22.387 24.059-35.625 0.77735-1.4141 1.2344-2.3711 1.9258-3.668zm32.16 2.7969c0.38672 1.2734 0.70313 2.1328 1.1016 3.5156 4.3867 15.117 8.9375 32.98 8.875 47.059-0.0625 14.004-4.6055 31.277-8.9726 45.738-0.54297 1.7852-0.96094 2.8555-1.4922 4.5352 25.27-3.2188 48.855-14.395 67.352-31.91-1.6211-3.2578-3.0156-6.1641-5.0898-10.043-6.8398-12.785-16.07-27.672-22.938-34.469-6.5547-6.4961-20.965-15.25-33.328-21.715-2.2812-1.1914-3.5117-1.7148-5.5078-2.7109zm-16.594 4.3516c-0.87109 1.6562-1.4688 2.9219-2.4766 4.7539-7.5859 13.793-17.004 29.648-27.004 39.559-9.9453 9.8594-25.359 18.863-38.672 26-1.6445 0.88281-2.6914 1.3516-4.25 2.1602 20.145 15.562 44.715 24.316 70.16 24.996 1.1328-3.3945 2.168-6.3516 3.4141-10.48 4.1797-13.828 8.2109-30.84 8.2539-40.832 0.043-9.9219-3.9726-27.691-8.1836-42.207-0.45313-1.5508-0.8125-2.543-1.2422-3.9492z" fill="#4a4a4a"/><g><path d="m240 199.5c0 26.508-21.492 48-48 48s-48-21.492-48-48 21.492-48 48-48 48 21.492 48 48z" opacity=".3"/><path d="m240 192c0 26.508-21.492 48-48 48s-48-21.492-48-48 21.492-48 48-48 48 21.492 48 48z" fill="#fff"/><path transform="scale(.75)" d="m256 32c-123.71 0-224 100.29-224 224 0 1.6718 0.026062 3.3369 0.0625 5 2.66-121.4 101.9-219 223.94-219 122.04 0 221.28 97.597 223.94 219 0.03644-1.6631 0.0625-3.3282 0.0625-5 0-123.71-100.29-224-224-224z" fill="#fffdf7" opacity=".3" stroke-width="1.3333"/><path transform="scale(.75)" d="m32.062 251c-0.036438 1.6631-0.0625 3.3282-0.0625 5 0 123.71 100.29 224 224 224 123.71 0 224-100.29 224-224 0-1.6718-0.02606-3.3369-0.0625-5-2.66 121.4-101.9 219-223.94 219-122.04 0-221.28-97.597-223.94-219z" opacity=".3" stroke-width="1.3333"/></g></svg>
